!!!COM: Bach, Johann Sebastian
!!!CDT: 1685/3//-1750/7/28/
!!!OTL@@DE: Ach bleib bei uns, Herr Jesu Christ
!!!AGN: 4-Part Chorale
!!!SCT: BH 177
!!!SCT: BWV 253
**harm	**root	**kern	**kern	**kern	**kern
!	!	!bass	!tenor	!alto	!soprno
*	*Iorgan	*Iorgan	*Iorgan	*Iorgan	*Iorgan
*M4/4	*M4/4	*M4/4	*M4/4	*M4/4	*M4/4
*met(c)	*met(c)	*met(c)	*met(c)	*met(c)	*met(c)
*MM60	*MM60	*MM60	*MM60	*MM60	*MM60
*k[f#c#g#d#]	*k[f#c#g#d#]	*k[f#c#g#d#]	*k[f#c#g#d#]	*k[f#c#g#d#]	*k[f#c#g#d#]
*E:	*E:	*E:	*E:	*E:	*E:
I	4AA	4EE	4B	4e	4g#
=1	=1	=1	=1	=1	=1
I	4AA	4E	4B	4e	8g#
.	.	.	.	.	8a
Vb	4EE	4D#	4B	4f#	4b
I	4AA	4E	4B	4e	4g#
IVb	4DD	4C#	8B	4e	4e
.	.	.	8A	.	.
=2	=2	=2	=2	=2	=2
IV/IV	4GG	4D	4A	8d	4f#
.	.	.	.	8c#	.
V/IV	4AA	4E	4E	4B	4g#
I/IV;	4DD;	4AA;	4E;	4c#;	4a;
I	4AA	4EE	4E	4B	4g#
=3	=3	=3	=3	=3	=3
V	4EE	4BB	4D#	8B	4f#
.	.	.	.	8A	.
vi	4FF#	8C#	4E	4G#	4e
.	.	8BB	.	.	.
IV	4DD	8AA	2A	2c#	4.e
.	.	8BB	.	.	.
IVb	4DD	8C#	.	.	.
.	.	8D#	.	.	8f#
=4	=4	=4	=4	=4	=4
I	4AA	4E	8G#	4B	4g#
.	.	.	8F#	.	.
Ib	4AA	8GG#	4E	4B	4g#
.	.	8AA	.	.	.
V	4EE	4BB	4E	4.B	8f#
.	.	.	.	.	8e
V	4EE	4BB	4D#	.	4f#
.	.	.	.	8A	.
!!linebreak: 2
=5	=5	=5	=5	=5	=5
I;	2.AA;	2.EE;	2.BB;	2.G#;	2.e;
I	4AA	4EE	4B	4e	4g#
=6	=6	=6	=6	=6	=6
V	4EE	4BB	8B	4d#	4f#
.	.	.	8A	.	.
Vb/vi	4CC#	4BB#	4G#	4d#	4g#
vi	4FF#	4C#	4G#	8c#	4e
.	.	.	.	8B	.
V/V	4BB	8F#	4F#	4A#	4c#
.	.	8E	.	.	.
=7	=7	=7	=7	=7	=7
Vb	4EE	4D#	4F#	4.B	4d#
viib/V	4DD#	4C#	4E	.	4e
.	.	.	.	8A#	.
V;	4EE;	4BB;	4D#;	4B;	4f#;
V/vi	4CC#	4GG#	4D#	4B#	4g#
=8	=8	=8	=8	=8	=8
vi	4FF#	8C#	4E	4G#	4e
.	.	8BB	.	.	.
IVb	4DD	8C#	4A	4c#	4e
.	.	8D#	.	.	.
I	4AA	8E	8G#	4B	4.e
.	.	8F#	8A	.	.
vib	8FF#	8E	8G#	8c#	.
vii	8GG#	8D#	8F#	8d#	8f#
=9	=9	=9	=9	=9	=9
vi	4FF#	4C#	4E	4e	4g#
Ib	4AA	8GG#	4E	4B	4g#
.	.	8AA	.	.	.
V	4EE	4BB	4E	4.B	8f#
.	.	.	.	.	8e
V	4EE	4BB	4D#	.	4f#
.	.	.	.	8A	.
=10	=10	=10	=10	=10	=10
I;	2.AA;	2.EE;	2.BB;	2.G#;	2.e;
====	====	====	====	====	====
*-	*-	*-	*-	*-	*-
!!chor2scor: -l 2 -s 0.6 -o %b.pmx
!!!YEC: Copyright 1994, David Huron
!!!YEC: Changes/Additions 2001 by Craig Stuart Sapp
!!!YEN: United States of America
!!!SMA: 371 Bach Chorales, edited by Ludwig Erk, C.F. Peters
!!!PDT: 1850, 1865
!!!ONB: Harmony and Root analysis done manually
